X:18507
T:Wandering Girl,The. JC.259
T:Bud Of The Rose,The,aka. JC.259
M:6/8
L:1/8
Q:60
S:John Clare,Poet,Helpstone (1793-1864)
R:Air
O:England4
A:Northamptonshire
N:
Z:P Headford
K:C
"As Writ"G|cBc dBG|ede fgf|dcd G A f/d/|d/c/ BAB "crot"c:|!:g|
gec GBd|efd BGG|cBc edc|cBcc2:|!:G|cBc dBG|
ede fgf|dce GA f/e/|d/c/ BcB "crot"c:|]
W:Song text exists. See Deacon.


